X: 100277
M: C|
L: 1/8
K: A
|:\
{G}vA2(Aa) cAec | {G}A2(Aa) cAea |\
[1 {G}A2(Aa) cAec | (dB)Bc (de)fa :|\
[2 {G}A2(Aa) cABG | AB,B,C DEFG ||
vAAGA FAED | CA,EA, FA,EG |\
(cA)(eA) (aA)(ec) | (dB)(fB) bBf"_Fine"a "^D.C."|]


